; generated by PrusaSlicer 2.2.0+linux-x64 on 2020-04-11 at 12:45:48 UTC

; 

; external perimeters extrusion width = 0.45mm
; perimeters extrusion width = 0.45mm
; infill extrusion width = 0.45mm
; solid infill extrusion width = 0.45mm
; top infill extrusion width = 0.40mm
; support material extrusion width = 0.35mm
; first layer extrusion width = 0.42mm

M73 P0 R118
M73 Q0 S119
M201 X1000 Y1000 Z1000 E5000 ; sets maximum accelerations, mm/sec^2
M203 X200 Y200 Z12 E120 ; sets maximum feedrates, mm/sec
M204 P1250 R1250 T1250 ; sets acceleration (P, T) and retract acceleration (R), mm/sec^2
M205 X8.00 Y8.00 Z0.40 E4.50 ; sets the jerk limits, mm/sec
M205 S0 T0 ; sets the minimum extruding and travel feed rate, mm/sec
M107
M862.3 P "MK3S" ; printer model check
M862.1 P0.4 ; nozzle diameter check
M115 U3.8.1 ; tell printer latest fw version
G90 ; use absolute coordinates
M83 ; extruder relative mode
M104 S220 ; set extruder temp
M140 S65 ; set bed temp
M190 S65 ; wait for bed temp
M109 S220 ; wait for extruder temp
G28 W ; home all without mesh bed level
G80 ; mesh bed leveling
G1 Y-3.0 F1000.0 ; go outside print area
G92 E0.0
G1 X60.0 E9.0 F1000.0 ; intro line
M73 Q0 S119
M73 P0 R118
G1 X100.0 E12.5 F1000.0 ; intro line
G92 E0.0
M221 S95
G21 ; set units to millimeters
G90 ; use absolute coordinates
M83 ; use relative distances for extrusion
M900 K30 ; Filament gcode
;BEFORE_LAYER_CHANGE
G92 E0.0
;0.2


G1 E-0.80000 F2100.00000
G1 Z0.600 F10800.000
;AFTER_LAYER_CHANGE
;0.2
G1 X97.318 Y88.723
G1 Z0.200
G1 E0.80000 F2100.00000
M204 S1000
G1 F1200.000
G1 X97.982 Y88.623 E0.02107
G1 X144.429 Y88.623 E1.45631
G1 X145.094 Y88.719 E0.02107
G1 X159.070 Y92.905 E0.45744
G1 X159.559 Y93.198 E0.01787
G1 X159.962 Y93.596 E0.01775
G1 X161.844 Y96.387 E0.10555
G1 X162.010 Y96.868 E0.01597
G1 X162.068 Y97.374 E0.01597
G1 X162.067 Y122.119 E0.77585
G1 X161.981 Y122.686 E0.01799
G1 X161.763 Y123.213 E0.01787
G1 X161.423 Y123.675 E0.01799
G1 X160.985 Y124.041 E0.01787
G1 X156.882 Y126.303 E0.14692
G1 X156.185 Y126.538 E0.02308
G1 X145.226 Y126.738 E0.34366
G1 X97.409 Y121.357 E1.50872
G1 X96.910 Y121.236 E0.01609
G1 X96.449 Y121.011 E0.01609
G1 X96.047 Y120.692 E0.01609
G1 X95.723 Y120.294 E0.01609
G1 X95.439 Y119.681 E0.02119
G1 X95.340 Y119.009 E0.02130
G1 X95.340 Y106.260 E0.39971
G1 X95.624 Y90.925 E0.48090
G1 X95.710 Y90.362 E0.01787
G1 X95.930 Y89.832 E0.01799
G1 X96.267 Y89.373 E0.01787
G1 X96.704 Y89.007 E0.01787
G1 X97.263 Y88.748 E0.01931
G1 F8640.000
G1 X97.982 Y88.623 E-0.16849
G1 X100.544 Y88.623 E-0.59151
G1 E-0.04000 F2100.00000
G1 Z0.800 F10800.000
G1 X159.691 Y122.047
G1 Z0.200
G1 E0.80000 F2100.00000
G1 F1200.000
G1 X159.691 Y97.394 E0.77297
G1 X158.937 Y97.394 E0.02365
G1 X158.937 Y121.877 E0.76765
G1 X158.183 Y121.877 E0.02365
G1 X158.183 Y97.394 E0.76765
G1 X158.102 Y97.394 E0.00255
G1 X158.102 Y95.076 E0.07267
G1 X157.429 Y95.076 E0.02110
G1 X157.429 Y121.877 E0.84032
G1 X156.675 Y121.877 E0.02365
G1 X156.675 Y95.076 E0.84032
G1 X155.921 Y95.076 E0.02365
G1 X155.921 Y121.877 E0.84032
G1 X155.784 Y121.877 E0.00428
G1 X155.784 Y124.195 E0.07267
G1 X155.166 Y124.195 E0.01937
G1 X155.166 Y95.076 E0.91300
G1 X154.412 Y95.076 E0.02365
G1 X154.412 Y124.195 E0.91300
G1 X153.658 Y124.195 E0.02365
G1 X153.658 Y95.076 E0.91300
G1 X152.904 Y95.076 E0.02365
G1 X152.904 Y124.195 E0.91300
G1 X152.150 Y124.195 E0.02365
G1 X152.150 Y95.076 E0.91300
G1 X151.396 Y95.076 E0.02365
G1 X151.396 Y124.195 E0.91300
G1 X150.641 Y124.195 E0.02365
G1 X150.641 Y95.076 E0.91300
G1 X149.887 Y95.076 E0.02365
G1 X149.887 Y124.195 E0.91300
G1 X149.133 Y124.195 E0.02365
G1 X149.133 Y95.076 E0.91300
G1 X148.379 Y95.076 E0.02365
G1 X148.379 Y124.195 E0.91300
G1 X147.625 Y124.195 E0.02365
G1 X147.625 Y95.076 E0.91300
G1 X146.871 Y95.076 E0.02365
G1 X146.871 Y124.195 E0.91300
G1 X146.116 Y124.195 E0.02365
G1 X146.116 Y95.076 E0.91300
G1 X145.362 Y95.076 E0.02365
G1 X145.362 Y124.365 E0.91832
G1 F8640.000
G1 X145.362 Y121.073 E-0.76000
G1 E-0.04000 F2100.00000
G1 Z0.800 F10800.000
G1 X142.559 Y117.459
G1 Z0.200
G1 E0.80000 F2100.00000
G1 F1200.000
G1 X99.475 Y117.459 E1.35087
G1 X99.475 Y106.705 E0.33717
G1 X99.541 Y106.638 E0.00296
G1 X99.541 Y92.541 E0.44201
G1 X142.559 Y92.541 E1.34878
G1 X142.559 Y117.399 E0.77939
G1 X142.936 Y117.836 F10800.000
G1 F1200.000
G1 X99.097 Y117.836 E1.37452
G1 X99.097 Y106.549 E0.35389
G1 X99.164 Y106.482 E0.00296
G1 X99.164 Y92.164 E0.44893
G1 X142.936 Y92.164 E1.37243
G1 X142.936 Y117.776 E0.80304
G1 X143.313 Y118.213 F10800.000
G1 F1200.000
G1 X98.720 Y118.213 E1.39817
M73 Q0 S118
G1 X98.720 Y106.393 E0.37062
M73 P0 R117
G1 X98.787 Y106.326 E0.00296
G1 X98.787 Y91.787 E0.45586
G1 X143.313 Y91.787 E1.39608
G1 X143.313 Y118.153 E0.82668
G1 X143.690 Y118.590 F10800.000
G1 F1200.000
G1 X98.343 Y118.590 E1.42181
G1 X98.343 Y106.236 E0.38734
G1 X98.410 Y106.170 E0.00296
G1 X98.410 Y91.410 E0.46278
G1 X143.690 Y91.410 E1.41972
G1 X143.690 Y118.530 E0.85033
G1 X143.296 Y118.518 F10800.000
G1 F8640.000
G1 X140.399 Y118.534 E-0.76000
G1 E-0.04000 F2100.00000
G1 Z0.800 F10800.000
G1 X100.355 Y117.346
G1 Z0.200
G1 E0.80000 F2100.00000
G1 F1200.000
G1 X99.757 Y116.748 E0.02668
G1 X99.757 Y116.211 E0.01694
G1 X100.722 Y117.176 E0.04305
G1 X101.259 Y117.176 E0.01694
G1 X99.757 Y115.674 E0.06701
G1 X99.757 Y115.138 E0.01694
G1 X101.796 Y117.176 E0.09096
G1 X102.332 Y117.176 E0.01694
G1 X99.757 Y114.601 E0.11491
G1 X99.757 Y114.064 E0.01694
G1 X102.869 Y117.176 E0.13886
G1 X103.406 Y117.176 E0.01694
G1 X99.757 Y113.528 E0.16281
G1 X99.757 Y112.991 E0.01694
G1 X103.942 Y117.176 E0.18676
G1 X104.479 Y117.176 E0.01694
G1 X99.757 Y112.454 E0.21071
G1 X99.757 Y111.918 E0.01694
G1 X105.016 Y117.176 E0.23467
G1 X105.552 Y117.176 E0.01694
G1 X99.757 Y111.381 E0.25862
G1 X99.757 Y110.844 E0.01694
G1 X106.089 Y117.176 E0.28257
G1 X106.626 Y117.176 E0.01694
G1 X99.757 Y110.307 E0.30652
G1 X99.757 Y109.771 E0.01694
G1 X107.163 Y117.176 E0.33047
G1 X107.699 Y117.176 E0.01694
G1 X99.757 Y109.234 E0.35442
G1 X99.757 Y108.697 E0.01694
G1 X108.236 Y117.176 E0.37837
G1 X108.773 Y117.176 E0.01694
G1 X99.757 Y108.161 E0.40233
G1 X99.757 Y107.624 E0.01694
G1 X109.309 Y117.176 E0.42628
G1 X109.846 Y117.176 E0.01694
G1 X99.757 Y107.087 E0.45023
G1 X99.757 Y106.822 E0.00836
G1 X99.824 Y106.756 E0.00298
G1 X99.824 Y106.617 E0.00436
G1 X110.383 Y117.176 E0.47121
G1 X110.919 Y117.176 E0.01694
G1 X99.824 Y106.081 E0.49516
G1 X99.824 Y105.544 E0.01694
G1 X111.456 Y117.176 E0.51911
G1 X111.993 Y117.176 E0.01694
G1 X99.824 Y105.007 E0.54306
G1 X99.824 Y104.470 E0.01694
G1 X112.530 Y117.176 E0.56701
G1 X113.066 Y117.176 E0.01694
G1 X99.824 Y103.934 E0.59096
G1 X99.824 Y103.397 E0.01694
G1 X113.603 Y117.176 E0.61491
G1 X114.140 Y117.176 E0.01694
G1 X99.824 Y102.860 E0.63887
G1 X99.824 Y102.324 E0.01694
G1 X114.676 Y117.176 E0.66282
G1 X115.213 Y117.176 E0.01694
G1 X99.824 Y101.787 E0.68677
G1 X99.824 Y101.250 E0.01694
G1 X115.750 Y117.176 E0.71072
G1 X116.287 Y117.176 E0.01694
G1 X99.824 Y100.713 E0.73467
G1 X99.824 Y100.177 E0.01694
G1 X116.823 Y117.176 E0.75862
G1 X117.360 Y117.176 E0.01694
G1 X99.824 Y99.640 E0.78257
G1 X99.824 Y99.103 E0.01694
G1 X117.897 Y117.176 E0.80653
G1 X118.433 Y117.176 E0.01694
G1 X99.824 Y98.567 E0.83048
G1 X99.824 Y98.030 E0.01694
G1 X118.970 Y117.176 E0.85443
G1 X119.507 Y117.176 E0.01694
G1 X99.824 Y97.493 E0.87838
G1 X99.824 Y96.957 E0.01694
G1 X120.043 Y117.176 E0.90233
G1 X120.580 Y117.176 E0.01694
G1 X99.824 Y96.420 E0.92628
G1 X99.824 Y95.883 E0.01694
G1 X121.117 Y117.176 E0.95023
G1 X121.654 Y117.176 E0.01694
G1 X99.824 Y95.346 E0.97419
G1 X99.824 Y94.810 E0.01694
G1 X122.190 Y117.176 E0.99814
G1 X122.727 Y117.176 E0.01694
G1 X99.824 Y94.273 E1.02209
G1 X99.824 Y93.736 E0.01694
G1 X123.264 Y117.176 E1.04604
G1 X123.800 Y117.176 E0.01694
G1 X99.824 Y93.200 E1.06999
G1 X99.824 Y92.824 E0.01185
G1 X99.985 Y92.824 E0.00508
G1 X124.337 Y117.176 E1.08675
G1 X124.874 Y117.176 E0.01694
G1 X100.522 Y92.824 E1.08675
G1 X101.059 Y92.824 E0.01694
G1 X125.410 Y117.176 E1.08675
G1 X125.947 Y117.176 E0.01694
G1 X101.595 Y92.824 E1.08675
M73 Q1 S117
G1 X102.132 Y92.824 E0.01694
G1 X126.484 Y117.176 E1.08675
M73 P1 R116
G1 X127.021 Y117.176 E0.01694
G1 X102.669 Y92.824 E1.08675
G1 X103.205 Y92.824 E0.01694
G1 X127.557 Y117.176 E1.08675
G1 X128.094 Y117.176 E0.01694
G1 X103.742 Y92.824 E1.08675
G1 X104.279 Y92.824 E0.01694
G1 X128.631 Y117.176 E1.08675
G1 X129.167 Y117.176 E0.01694
G1 X104.815 Y92.824 E1.08675
G1 X105.352 Y92.824 E0.01694
G1 X129.704 Y117.176 E1.08675
G1 X130.241 Y117.176 E0.01694
G1 X105.889 Y92.824 E1.08675
G1 X106.426 Y92.824 E0.01694
G1 X130.777 Y117.176 E1.08675
G1 X131.314 Y117.176 E0.01694
G1 X106.962 Y92.824 E1.08675
G1 X107.499 Y92.824 E0.01694
G1 X131.851 Y117.176 E1.08675
G1 X132.388 Y117.176 E0.01694
G1 X108.036 Y92.824 E1.08675
G1 X108.572 Y92.824 E0.01694
G1 X132.924 Y117.176 E1.08675
G1 X133.461 Y117.176 E0.01694
G1 X109.109 Y92.824 E1.08675
G1 X109.646 Y92.824 E0.01694
G1 X133.998 Y117.176 E1.08675
G1 X134.534 Y117.176 E0.01694
G1 X110.182 Y92.824 E1.08675
G1 X110.719 Y92.824 E0.01694
G1 X135.071 Y117.176 E1.08675
G1 X135.608 Y117.176 E0.01694
G1 X111.256 Y92.824 E1.08675
G1 X111.793 Y92.824 E0.01694
G1 X136.145 Y117.176 E1.08675
G1 X136.681 Y117.176 E0.01694
G1 X112.329 Y92.824 E1.08675
G1 X112.866 Y92.824 E0.01694
G1 X137.218 Y117.176 E1.08675
G1 X137.755 Y117.176 E0.01694
G1 X113.403 Y92.824 E1.08675
G1 X113.939 Y92.824 E0.01694
G1 X138.291 Y117.176 E1.08675
G1 X138.828 Y117.176 E0.01694
G1 X114.476 Y92.824 E1.08675
G1 X115.013 Y92.824 E0.01694
G1 X139.365 Y117.176 E1.08675
G1 X139.901 Y117.176 E0.01694
G1 X115.549 Y92.824 E1.08675
G1 X116.086 Y92.824 E0.01694
G1 X140.438 Y117.176 E1.08675
G1 X140.975 Y117.176 E0.01694
G1 X116.623 Y92.824 E1.08675
G1 X117.160 Y92.824 E0.01694
G1 X141.512 Y117.176 E1.08675
G1 X142.048 Y117.176 E0.01694
G1 X117.696 Y92.824 E1.08675
G1 X118.233 Y92.824 E0.01694
G1 X142.276 Y116.867 E1.07297
G1 X142.276 Y116.330 E0.01694
G1 X118.770 Y92.824 E1.04901
G1 X119.306 Y92.824 E0.01694
G1 X142.276 Y115.794 E1.02506
G1 X142.276 Y115.257 E0.01694
G1 X119.843 Y92.824 E1.00111
G1 X120.380 Y92.824 E0.01694
G1 X142.276 Y114.720 E0.97716
M73 Q2 S116
G1 X142.276 Y114.183 E0.01694
G1 X120.917 Y92.824 E0.95321
M73 P2 R115
G1 X121.453 Y92.824 E0.01694
G1 X142.276 Y113.647 E0.92926
G1 X142.276 Y113.110 E0.01694
G1 X121.990 Y92.824 E0.90531
G1 X122.527 Y92.824 E0.01694
G1 X142.276 Y112.573 E0.88135
G1 X142.276 Y112.037 E0.01694
G1 X123.063 Y92.824 E0.85740
G1 X123.600 Y92.824 E0.01694
G1 X142.276 Y111.500 E0.83345
G1 X142.276 Y110.963 E0.01694
G1 X124.137 Y92.824 E0.80950
G1 X124.673 Y92.824 E0.01694
G1 X142.276 Y110.427 E0.78555
G1 X142.276 Y109.890 E0.01694
G1 X125.210 Y92.824 E0.76160
G1 X125.747 Y92.824 E0.01694
G1 X142.276 Y109.353 E0.73765
G1 X142.276 Y108.816 E0.01694
G1 X126.284 Y92.824 E0.71369
G1 X126.820 Y92.824 E0.01694
G1 X142.276 Y108.280 E0.68974
G1 X142.276 Y107.743 E0.01694
G1 X127.357 Y92.824 E0.66579
G1 X127.894 Y92.824 E0.01694
G1 X142.276 Y107.206 E0.64184
G1 X142.276 Y106.670 E0.01694
G1 X128.430 Y92.824 E0.61789
G1 X128.967 Y92.824 E0.01694
G1 X142.276 Y106.133 E0.59394
G1 X142.276 Y105.596 E0.01694
G1 X129.504 Y92.824 E0.56999
G1 X130.040 Y92.824 E0.01694
G1 X142.276 Y105.060 E0.54603
G1 X142.276 Y104.523 E0.01694
G1 X130.577 Y92.824 E0.52208
G1 X131.114 Y92.824 E0.01694
G1 X142.276 Y103.986 E0.49813
G1 X142.276 Y103.449 E0.01694
G1 X131.651 Y92.824 E0.47418
G1 X132.187 Y92.824 E0.01694
G1 X142.276 Y102.913 E0.45023
G1 X142.276 Y102.376 E0.01694
G1 X132.724 Y92.824 E0.42628
G1 X133.261 Y92.824 E0.01694
G1 X142.276 Y101.839 E0.40233
G1 X142.276 Y101.303 E0.01694
G1 X133.797 Y92.824 E0.37837
G1 X134.334 Y92.824 E0.01694
G1 X142.276 Y100.766 E0.35442
G1 X142.276 Y100.229 E0.01694
G1 X134.871 Y92.824 E0.33047
G1 X135.407 Y92.824 E0.01694
G1 X142.276 Y99.693 E0.30652
G1 X142.276 Y99.156 E0.01694
G1 X135.944 Y92.824 E0.28257
G1 X136.481 Y92.824 E0.01694
G1 X142.276 Y98.619 E0.25862
G1 X142.276 Y98.082 E0.01694
G1 X137.018 Y92.824 E0.23467
G1 X137.554 Y92.824 E0.01694
G1 X142.276 Y97.546 E0.21071
G1 X142.276 Y97.009 E0.01694
G1 X138.091 Y92.824 E0.18676
G1 X138.628 Y92.824 E0.01694
G1 X142.276 Y96.472 E0.16281
G1 X142.276 Y95.936 E0.01694
G1 X139.164 Y92.824 E0.13886
G1 X139.701 Y92.824 E0.01694
G1 X142.276 Y95.399 E0.11491
G1 X142.276 Y94.862 E0.01694
G1 X140.238 Y92.824 E0.09096
G1 X140.775 Y92.824 E0.01694
G1 X142.276 Y94.325 E0.06701
G1 X142.276 Y93.789 E0.01694
G1 X141.311 Y92.824 E0.04305
G1 X141.848 Y92.824 E0.01694
G1 X142.446 Y93.422 E0.02668
M106 S255
;BEFORE_LAYER_CHANGE
G92 E0.0
;0.35


G1 F8640.000
G1 X141.848 Y92.824 E-0.19519
G1 X141.311 Y92.824 E-0.12393
G1 X142.276 Y93.789 E-0.31503
G1 X142.276 Y94.325 E-0.12393
G1 X142.270 Y94.320 E-0.00193
G1 E-0.04000 F2100.00000
G1 Z0.800 F10800.000
;AFTER_LAYER_CHANGE
;0.35
G1 X156.185 Y126.538
G1 Z0.350
G1 E0.80000 F2100.00000
G1 F3000.000
G1 X145.226 Y126.738 E0.26508
G1 X97.409 Y121.357 E1.16374
G1 X96.910 Y121.236 E0.01241
G1 X96.449 Y121.011 E0.01241
G1 X96.047 Y120.692 E0.01241
G1 X95.723 Y120.294 E0.01241
G1 X95.439 Y119.681 E0.01634
G1 X95.340 Y119.009 E0.01643
G1 X95.340 Y106.260 E0.30832
G1 X95.624 Y90.925 E0.37094
G1 X95.710 Y90.362 E0.01378
G1 X95.930 Y89.832 E0.01388
G1 X96.267 Y89.373 E0.01378
G1 X96.704 Y89.007 E0.01378
G1 X97.318 Y88.723 E0.01634
G1 X97.982 Y88.623 E0.01625
G1 X144.429 Y88.623 E1.12331
G1 X145.094 Y88.719 E0.01625
G1 X159.070 Y92.905 E0.35285
G1 X159.559 Y93.198 E0.01378
G1 X159.962 Y93.596 E0.01369
G1 X161.844 Y96.387 E0.08141
G1 X162.010 Y96.868 E0.01232
G1 X162.068 Y97.374 E0.01232
G1 X162.067 Y122.119 E0.59845
G1 X161.981 Y122.686 E0.01388
G1 X161.763 Y123.213 E0.01378
G1 X161.423 Y123.675 E0.01388
G1 X160.985 Y124.041 E0.01378
G1 X156.882 Y126.303 E0.11332
G1 X156.242 Y126.519 E0.01635
G1 F8640.000
G1 X152.951 Y126.584 E-0.76000
G1 E-0.04000 F2100.00000
G1 Z0.950 F10800.000
G1 X142.797 Y117.522
G1 Z0.350
G1 E0.80000 F2100.00000
M204 S800
G1 F2700.000
G1 X99.295 Y117.522 E1.13346
G1 X99.295 Y106.796 E0.27947
G1 X99.478 Y106.612 E0.00676
G1 X99.478 Y92.478 E0.36827
G1 X142.797 Y92.478 E1.12869
G1 X142.797 Y117.462 E0.65096
M204 S1000
G1 X143.214 Y117.939 F10800.000
M204 S800
G1 F2700.000
G1 X98.877 Y117.939 E1.15524
G1 X98.877 Y106.623 E0.29487
G1 X99.061 Y106.439 E0.00676
G1 X99.061 Y92.061 E0.37465
G1 X143.214 Y92.061 E1.15046
G1 X143.214 Y117.879 E0.67273
M204 S1000
G1 X143.632 Y118.357 F10800.000
M204 S800
G1 F2700.000
G1 X98.459 Y118.357 E1.17701
G1 X98.459 Y106.450 E0.31026
G1 X98.643 Y106.266 E0.00676
G1 X98.643 Y91.643 E0.38103
G1 X143.632 Y91.643 E1.17223
G1 X143.632 Y118.297 E0.69450
M204 S1000
G1 F8640.000
G1 X140.341 Y118.302 E-0.76000
G1 E-0.04000 F2100.00000
G1 Z0.950 F10800.000
G1 X98.225 Y106.093
G1 Z0.350
G1 E0.80000 F2100.00000
M204 S800
G1 F1500.000
G1 X98.225 Y91.225 E0.38740
G1 X144.050 Y91.225 E1.19401
G1 X144.050 Y118.775 E0.71784
G1 X98.042 Y118.775 E1.19878
G1 X98.042 Y106.277 E0.32566
G1 X98.183 Y106.136 E0.00519
M204 S1000
G1 X98.572 Y105.895 F10800.000
G1 F8640.000
G1 X98.192 Y102.844 E-0.76000
G1 E-0.04000 F2100.00000
G1 Z0.950 F10800.000
G1 X141.819 Y117.396
G1 Z0.350
G1 E0.80000 F2100.00000
G1 F4800.000
G1 X142.483 Y116.732 E0.02469
G1 X142.483 Y116.136 E0.01566
G1 X141.411 Y117.208 E0.03985
G1 X140.815 Y117.208 E0.01566
G1 X142.483 Y115.540 E0.06201
G1 X142.483 Y114.944 E0.01566
G1 X140.219 Y117.208 E0.08416
G1 X139.623 Y117.208 E0.01566
G1 X142.483 Y114.348 E0.10631
G1 X142.483 Y113.752 E0.01566
G1 X139.027 Y117.208 E0.12846
G1 X138.431 Y117.208 E0.01566
G1 X142.483 Y113.156 E0.15061
G1 X142.483 Y112.560 E0.01566
G1 X137.835 Y117.208 E0.17276
G1 X137.239 Y117.208 E0.01566
G1 X142.483 Y111.964 E0.19492
G1 X142.483 Y111.368 E0.01566
G1 X136.643 Y117.208 E0.21707
G1 X136.047 Y117.208 E0.01566
G1 X142.483 Y110.772 E0.23922
G1 X142.483 Y110.176 E0.01566
G1 X135.451 Y117.208 E0.26137
G1 X134.855 Y117.208 E0.01566
G1 X142.483 Y109.580 E0.28352
G1 X142.483 Y108.984 E0.01566
G1 X134.259 Y117.208 E0.30568
G1 X133.663 Y117.208 E0.01566
